Kurtis_Portfolio/src/assets/Abtassets/ps.svg

<?xml version="1.0" encoding="UTF-8"?>
<svg id="Layer_1" data-name="Layer 1" xmlns="http://www.w3.org/2000/svg" viewBox="0 0 521.65 508.61">
  <defs>
    <style>
      .cls-1 {
        fill: #001e36;
      }

      .cls-2 {
        fill: #31a8ff;
      }
    </style>
  </defs>
  <g id="Layer_2" data-name="Layer 2">
    <g id="Surfaces">
      <g id="Photo_Surface" data-name="Photo Surface">
        <g id="Outline_no_shadow" data-name="Outline no shadow">
          <rect class="cls-1" width="521.65" height="508.61" rx="92.37" ry="92.37"/>
        </g>
      </g>
    </g>
    <g id="Outlined_Mnemonics_Logos" data-name="Outlined Mnemonics Logos">
      <g id="Ps">
        <path class="cls-2" d="M117.46,356.67v-223.61c0-1.63.7-2.45,2.1-2.45,3.73,0,7.13-.05,12.27-.18,5.13-.11,10.67-.23,16.62-.35,5.95-.12,12.25-.23,18.9-.35,6.65-.11,13.24-.17,19.77-.18,17.73,0,32.66,2.22,44.79,6.65,10.95,3.7,20.93,9.8,29.22,17.85,7.03,6.98,12.46,15.39,15.92,24.67,3.27,9.03,4.93,18.57,4.9,28.17,0,18.67-4.32,34.06-12.95,46.19-8.69,12.18-20.9,21.4-34.99,26.42-14.7,5.48-31.03,7.34-48.99,7.34-5.13,0-8.75-.06-10.85-.18-2.1-.12-5.25-.17-9.45-.18v69.82c.22,1.52-.84,2.93-2.36,3.15-.26.04-.53.04-.79,0h-41.66c-1.63,0-2.45-.93-2.45-2.8ZM164.72,172.6v72.93c3.03.24,5.83.35,8.4.35h11.55c8.5-.03,16.94-1.38,25.02-3.99,6.93-2.06,13.13-6.07,17.85-11.55,4.55-5.36,6.82-12.83,6.82-22.4.18-6.77-1.58-13.45-5.08-19.25-3.68-5.61-8.99-9.94-15.22-12.42-8.13-3.16-16.82-4.65-25.55-4.37-5.6,0-10.56.06-14.87.17-4.32.12-7.29.3-8.92.52h0Z"/>
        <path class="cls-2" d="M417.25,232.27c-6.58-3.38-13.58-5.85-20.82-7.35-7.98-1.83-16.14-2.77-24.32-2.8-4.43-.12-8.85.41-13.12,1.57-2.72.61-5.14,2.16-6.82,4.37-1.14,1.77-1.75,3.84-1.75,5.95.06,2.05.8,4.01,2.1,5.6,2.04,2.39,4.54,4.35,7.35,5.77,4.99,2.69,10.13,5.08,15.4,7.17,11.74,3.93,22.97,9.28,33.42,15.92,7.12,4.49,13.01,10.69,17.15,18.02,3.48,6.95,5.22,14.63,5.07,22.4.21,10.25-2.72,20.33-8.4,28.87-6.08,8.67-14.52,15.41-24.32,19.42-10.62,4.66-23.74,7-39.37,7-9.93.1-19.84-.84-29.57-2.8-7.67-1.41-15.13-3.76-22.22-7-1.56-.81-2.52-2.44-2.45-4.2v-37.79c-.09-.75.25-1.49.88-1.92.62-.35,1.38-.28,1.92.18,8.37,4.94,17.46,8.54,26.95,10.67,8.36,2.09,16.93,3.21,25.55,3.32,8.16,0,14.17-1.05,18.02-3.15,3.55-1.63,5.82-5.19,5.77-9.1,0-3.03-1.75-5.94-5.25-8.75-3.5-2.8-10.61-6.18-21.35-10.15-10.99-3.82-21.41-9.12-30.97-15.75-6.84-4.76-12.47-11.05-16.45-18.37-3.44-6.9-5.18-14.52-5.07-22.22-.02-9.26,2.52-18.34,7.35-26.25,5.5-8.7,13.4-15.63,22.75-19.95,10.26-5.13,23.09-7.69,38.49-7.7,9.02-.07,18.03.57,26.95,1.92,6.46.82,12.77,2.53,18.76,5.07.96.28,1.74.99,2.1,1.92.24.85.35,1.74.35,2.62v35.34c.05.84-.35,1.64-1.05,2.1-.95.47-2.06.47-3.01,0Z"/>
      </g>
    </g>
  </g>
</svg>

<svg width="522" height="509" viewBox="0 0 522 509" fill="none" xmlns="http://www.w3.org/2000/svg">
<g clip-path="url(#clip0_116_95)">
<path d="M429.28 0H92.37C41.3555 0 0 41.3555 0 92.37V416.24C0 467.255 41.3555 508.61 92.37 508.61H429.28C480.295 508.61 521.65 467.255 521.65 416.24V92.37C521.65 41.3555 480.295 0 429.28 0Z" fill="black"/>
<path d="M117.46 356.67V133.06C117.46 131.43 118.16 130.61 119.56 130.61C123.29 130.61 126.69 130.56 131.83 130.43C136.96 130.32 142.5 130.2 148.45 130.08C154.4 129.96 160.7 129.85 167.35 129.73C174 129.62 180.59 129.56 187.12 129.55C204.85 129.55 219.78 131.77 231.91 136.2C242.86 139.9 252.84 146 261.13 154.05C268.16 161.03 273.59 169.44 277.05 178.72C280.32 187.75 281.98 197.29 281.95 206.89C281.95 225.56 277.63 240.95 269 253.08C260.31 265.26 248.1 274.48 234.01 279.5C219.31 284.98 202.98 286.84 185.02 286.84C179.89 286.84 176.27 286.78 174.17 286.66C172.07 286.54 168.92 286.49 164.72 286.48V356.3C164.94 357.82 163.88 359.23 162.36 359.45C162.1 359.49 161.83 359.49 161.57 359.45H119.91C118.28 359.45 117.46 358.52 117.46 356.65V356.67ZM164.72 172.6V245.53C167.75 245.77 170.55 245.88 173.12 245.88H184.67C193.17 245.85 201.61 244.5 209.69 241.89C216.62 239.83 222.82 235.82 227.54 230.34C232.09 224.98 234.36 217.51 234.36 207.94C234.54 201.17 232.78 194.49 229.28 188.69C225.6 183.08 220.29 178.75 214.06 176.27C205.93 173.11 197.24 171.62 188.51 171.9C182.91 171.9 177.95 171.96 173.64 172.07C169.32 172.19 166.35 172.37 164.72 172.59V172.6Z" fill="white"/>
<path d="M417.25 232.27C410.67 228.89 403.67 226.42 396.43 224.92C388.45 223.09 380.29 222.15 372.11 222.12C367.68 222 363.26 222.53 358.99 223.69C356.27 224.3 353.85 225.85 352.17 228.06C351.03 229.83 350.42 231.9 350.42 234.01C350.48 236.06 351.22 238.02 352.52 239.61C354.56 242 357.06 243.96 359.87 245.38C364.86 248.07 370 250.46 375.27 252.55C387.01 256.48 398.24 261.83 408.69 268.47C415.81 272.96 421.7 279.16 425.84 286.49C429.32 293.44 431.06 301.12 430.91 308.89C431.12 319.14 428.19 329.22 422.51 337.76C416.43 346.43 407.99 353.17 398.19 357.18C387.57 361.84 374.45 364.18 358.82 364.18C348.89 364.28 338.98 363.34 329.25 361.38C321.58 359.97 314.12 357.62 307.03 354.38C305.47 353.57 304.51 351.94 304.58 350.18V312.39C304.49 311.64 304.83 310.9 305.46 310.47C306.08 310.12 306.84 310.19 307.38 310.65C315.75 315.59 324.84 319.19 334.33 321.32C342.69 323.41 351.26 324.53 359.88 324.64C368.04 324.64 374.05 323.59 377.9 321.49C381.45 319.86 383.72 316.3 383.67 312.39C383.67 309.36 381.92 306.45 378.42 303.64C374.92 300.84 367.81 297.46 357.07 293.49C346.08 289.67 335.66 284.37 326.1 277.74C319.26 272.98 313.63 266.69 309.65 259.37C306.21 252.47 304.47 244.85 304.58 237.15C304.56 227.89 307.1 218.81 311.93 210.9C317.43 202.2 325.33 195.27 334.68 190.95C344.94 185.82 357.77 183.26 373.17 183.25C382.19 183.18 391.2 183.82 400.12 185.17C406.58 185.99 412.89 187.7 418.88 190.24C419.84 190.52 420.62 191.23 420.98 192.16C421.22 193.01 421.33 193.9 421.33 194.78V230.12C421.38 230.96 420.98 231.76 420.28 232.22C419.33 232.69 418.22 232.69 417.27 232.22L417.25 232.27Z" fill="white"/>
</g>
<defs>
<clipPath id="clip0_116_95">
<rect width="521.65" height="508.61" fill="white"/>
</clipPath>
</defs>
</svg>
